!!!COM: Palestrina, Giovanni Perluigi da
!!!OPR: Missa O Rex gloriae
!!!OTL: Gloria
**kern	**kern	**kern	**kern
*Ibass	*Itenor	*Icalto	*Icant
!Bassus	!Tenor	!Altus	!Cantus
*clefF4	*clefGv2	*clefG2	*clefG2
*k[b-]	*k[b-]	*k[b-]	*k[b-]
*G:dor	*G:dor	*G:dor	*G:dor
*M4/2	*M4/2	*M4/2	*M4/2
=1	=1	=1	=1
0r	0g	0r	1r
.	.	.	[1dd
=2	=2	=2	=2
0d	1d	1r	1dd]
.	1f	[1a	1a
=3	=3	=3	=3
1A	1.e	1a]	0cc
1c	.	1e	.
.	2c	.	.
=4	=4	=4	=4
1G	2d	1g	1b-
.	1e	.	.
1A	.	1f	[1a
.	[2d	.	.
=5	=5	=5	=5
1A	2d]	2e	2a]
.	2c#	2e	2a
2G	[1d	2g	2b-
2G	.	2g	2b-
=6	=6	=6	=6
1D	1d]	2f	2a
.	.	1f	1dd
1A	1r	.	.
.	.	2e	2cc
=7	=7	=7	=7
2F	2r	2a	2ff
2B-	1d	2g	2dd
1A	.	1a	2ff
.	2c	.	[2ee
=8	=8	=8	=8
1D	2f	0a	4ee]
.	.	.	4dd
.	2d	.	1dd
2.A	1e	.	.
.	.	.	2cc#
4G	.	.	.
=9	=9	=9	=9
2F#	0d	2r	2dd
2G	.	2g	2b-
1D	.	2g	2b-
.	.	2f	2a
=10	=10	=10	=10
0r	0r	1.b-	4g
.	.	.	4a
.	.	.	4b-
.	.	.	4cc
.	.	.	2dd
.	.	2a	2ff
=11	=11	=11	=11
0r	0r	2g	2ee
.	.	2f	2.dd
.	.	2g	.
.	.	.	4dd
.	.	2e	2cc#
=12	=12	=12	=12
2r	0r	2d	[0dd
1G	.	1b-	.
2F	.	2a	.
=13	=13	=13	=13
2B-	2r	2f	1dd]
2G	1d	2g	.
1A	.	2.e	1r
.	2c	.	.
.	.	8f	.
.	.	8g	.
=14	=14	=14	=14
4D	2f	1a	0r
4E	.	.	.
4F	2d	.	.
4G	.	.	.
4A	2f	2r	.
4B-	.	.	.
2c	2e	2g	.
=15	=15	=15	=15
2B-	2d	2g	1r
2A	2c	2f	.
1G	2.d	1b-	2r
.	.	.	2dd
.	4e	.	.
=16	=16	=16	=16
1A	2f	2.a	2dd
.	2e	.	2cc
.	.	4g	.
1D	4d	2a	4ff
.	4c	.	4ee
.	4B-	[2b-	4dd
.	4A	.	4cc
=17	=17	=17	=17
0r	4G	4b-]	4dd
.	4A	4a	4cc
.	4B-	1g	2b-
.	4c	.	.
.	1d	.	1a
.	.	2f#	.
=18	=18	=18	=18
1.C	1.e	2g	2g
.	.	1g	1cc
2G	2d	2g	2b
=19	=19	=19	=19
1G	1d	1g	1b
1F	1f	1a	1cc
=20	=20	=20	=20
2F	2f	2a	2cc
2F	2f	2a	2cc
1G	1d	1g	1b-
=21	=21	=21	=21
1D	2d	2f	1a
.	1f	1d	.
1A	.	.	2r
.	2e	2c	[2a
=22	=22	=22	=22
0r	2f	2d	2a]
.	2e	2e	2g
.	2d	2f	2a
.	2G	2d	2b-
=23	=23	=23	=23
1r	2c	2e	2cc
.	2d	2f	2a
2r	1G	2.g	2.b-
[2G	.	.	.
.	.	8f	4a
.	.	8e	.
=24	=24	=24	=24
2G]	0r	4d	4b-
.	.	4e	4cc
2F	.	4f	1dd
.	.	4d	.
2G	.	1e	.
2A	.	.	2cc#
=25	=25	=25	=25
2B-	2r	2.d	2dd
2G	2d	.	2b-
.	.	4e	.
2A	2c	2f	2a
2B-	2d	[2g	2dd
=26	=26	=26	=26
0c	2e	4g]	0cc
.	.	4e	.
.	2.f	2a	.
.	.	1g	.
.	8e	.	.
.	8d	.	.
.	2e	.	.
=27	=27	=27	=27
2r	2f	1f	0a
2.F	2.c	.	.
.	.	2r	.
4F	4c	.	.
2F	2c	[2f	.
=28	=28	=28	=28
2B-	2d	4f]	0r
.	.	4f	.
2A	2c	2f	.
2.B-	1d	2g	.
.	.	2f	.
4A	.	.	.
=29	=29	=29	=29
2G	2e	2g	0r
2F	2.f	2a	.
1G	.	1b-	.
.	8e	.	.
.	8d	.	.
.	2e	.	.
=30	=30	=30	=30
4F	2f	2a	2r
4G	.	.	.
4A	1f	1a	1cc
4B-	.	.	.
1c	.	.	.
.	2e	2g	2cc
=31	=31	=31	=31
0r	2d	1a	2ff
.	2c	.	2ee
.	2d	2a	2ff
.	[2c	2a	[2ee
=32	=32	=32	=32
1r	2c]	2g	2ee]
.	2B-	2g	2dd
2r	2A	1a	4cc
.	.	.	4b-
[2d	[2f	.	4a
.	.	.	4g
=33	=33	=33	=33
4d]	4f]	2r	1a
4d	4f	.	.
2d	2f	2.a	.
2c	2e	.	1r
.	.	4a	.
2B-	2d	2g	.
=34	=34	=34	=34
1.A	1.c	2f	0r
.	.	2e	.
.	.	2f	.
2G	2B-	2e	.
=35	=35	=35	=35
2F	2A	2d	2r
2E	2G	2c#	2.gg
1D	1A	2d	.
.	.	.	4ff
.	.	[2d	2ff
=36	=36	=36	=36
2.A	0r	4d]	1ee
.	.	4c	.
.	.	2c	.
4A	.	.	.
2B-	.	2f	1dd
2B-	.	2g	.
=37	=37	=37	=37
1A	1r	2.a	2.cc
.	.	4g	4b-
1r	2r	2f	2a
.	[2g	2e	2g
=38	=38	=38	=38
2r	2g]	1d	1a
1d	1f	.	.
.	.	1a	1r
[2c	4e	.	.
.	4d	.	.
=39	=39	=39	=39
2c]	1e	0g	1r
4B-	.	.	.
4A	.	.	.
1B-	1d	.	2r
.	.	.	[2dd
=40	=40	=40	=40
1A	2.e	1a	2dd]
.	.	.	1cc
.	4f	.	.
[1G	1g	2.d	.
.	.	.	4b-
.	.	8e	4a
.	.	8f	.
=41	=41	=41	=41
0G]	[0d	0g	1b-
.	.	.	1b-
=42	=42	=42	=42
0D	0d]	1f#	1a
.	.	2r	2r
.	.	[2f#	[2a
=43	=43	=43	=43
0r	0r	4f#]	4a]
.	.	4f#	4a
.	.	2f#	2a
.	.	2g	2b-
.	.	2e	2cc
=44	=44	=44	=44
0r	1r	4d	2.dd
.	.	4e	.
.	.	4f	.
.	.	4g	4ee
.	2r	4a	2ff
.	.	4b-	.
.	[2A	[2cc	4ee
.	.	.	4dd
=45	=45	=45	=45
0r	4A]	2cc]	2ee
.	4A	.	.
.	2A	2a	1ff
.	2B-	1g	.
.	2c	.	2ee
=46	=46	=46	=46
2r	2.d	2.f	1ff
2.D	.	.	.
.	4e	4g	.
.	2f	2a	1r
4D	.	.	.
2D	2d	[2b-	.
=47	=47	=47	=47
2E	1c	2b-]	0r
2F	.	2a	.
2.G	2B-	1g	.
.	4d	.	.
4A	4c	.	.
=48	=48	=48	=48
4B-	4d	1f	2r
4c	4e	.	.
1d	1f	.	2a
.	.	1r	2b-
2c	[2e	.	2a
=49	=49	=49	=49
2B-	4e]	2r	1b-
.	4d	.	.
2G	1d	2d	.
1A	.	2f	[1a
.	2c#	2e	.
=50	=50	=50	=50
1D	2d	2.f	0a]
.	2d	.	.
.	.	4e	.
1r	2f	2d	.
.	2e	2c#	.
=51	=51	=51	=51
1r	1f	1d	2r
.	.	.	1dd
1A	1e	1a	.
.	.	.	2cc
=52	=52	=52	=52
2B-	2d	2g	2dd
2A	2c	2a	2.ff
1B-	1d	2f	.
.	.	.	4ee
.	.	2g	[2dd
=53	=53	=53	=53
0A	0e	[0a	2dd]
.	.	.	4cc#
.	.	.	4b
.	.	.	1cc#
=54	=54	=54	=54
0D	0f#	0a]	0dd
=55	=55	=55	=55
0r	0r	1r	0g
.	.	1g	.
=56	=56	=56	=56
0r	0r	1b-	1dd
.	.	2a	2cc
.	.	2f	2a
=57	=57	=57	=57
1r	0r	2g	2b-
.	.	2a	2cc
[1G	.	1b-	2.dd
.	.	.	4cc
=58	=58	=58	=58
1G]	1d	1g	1b-
1d	1f	2r	[1a
.	.	2a	.
=59	=59	=59	=59
2c	2e	1cc	1a]
2A	2c	.	.
2B-	2d	2b-	1r
2c	2e	2g	.
=60	=60	=60	=60
2.d	2.f	2b-	2r
.	.	2a	1dd
4c	4e	.	.
1B-	2f	1d	.
.	2g	.	2dd
=61	=61	=61	=61
2A	2a	2e	2cc
1d	1f	4d	2b-
.	.	4e	.
.	.	4f	2.a
.	.	4g	.
2d	2f	2a	.
.	.	.	4b-
=62	=62	=62	=62
2c	2e	2a	2cc
2B-	2d	1g	2dd
1A	2e	.	1cc
.	2c	2f#	.
=63	=63	=63	=63
0G	1d	1g	0b
.	2r	2d	.
.	2d	2g	.
=64	=64	=64	=64
2r	1g	1b-	2r
2G	.	.	2dd
1d	2f	2a	1ff
.	2d	2f	.
=65	=65	=65	=65
2c	2e	2g	2ee
2A	1f	2a	2cc
2B-	.	2.g	2dd
2c	2e	.	2ee
.	.	4a	.
=66	=66	=66	=66
2.d	4d	4f	2.ff
.	4e	4g	.
.	1f	1a	.
4c	.	.	4ee
1B-	.	.	1dd
.	4e	2g	.
.	4d	.	.
=67	=67	=67	=67
1A	1e	1a	1cc#
[1d	[1f#	[1a	[1dd
=68	=68	=68	=68
2d]	2f#]	2a]	2dd]
2d	2f#	2a	2dd
4G	[1g	1b-	1dd
4A	.	.	.
4B-	.	.	.
4c	.	.	.
=69	=69	=69	=69
1d	2g]	1a	2r
.	1f	.	1dd
1A	.	2r	.
.	2e	[2a	2cc
=70	=70	=70	=70
0r	2f	2a]	2dd
.	2e	2g	2ee
.	1d	2a	1ff
.	.	2b-	.
=71	=71	=71	=71
2r	1A	4cc	2ee
.	.	4b-	.
1D	.	4a	1ff
.	.	4g	.
.	2r	2.a	.
2C	[2A	.	2ee
.	.	4g	.
=72	=72	=72	=72
2D	2A]	2f	2dd
2E	2G	2g	4cc
.	.	.	4b-
2F	2A	2f	2a
2G	2B-	4e	2g
.	.	4d	.
=73	=73	=73	=73
1C	2.c	1e	4a
.	.	.	4g
.	.	.	1g
.	4B-	.	.
1D	1A	[1d	.
.	.	.	2f#
=74	=74	=74	=74
0G	2G	2d]	1g
.	2d	2g	.
.	1g	1b-	2r
.	.	.	2g
=75	=75	=75	=75
0r	2g	2b-	1dd
.	2f	2a	.
.	2g	2b-	2dd
.	2e	2g	2cc
=76	=76	=76	=76
2r	1.d	2f	2dd
2G	.	4d	2b-
.	.	4e	.
1d	.	4f	2a
.	.	8e	.
.	.	8f	.
.	2G	4g	[2b-
.	.	4f	.
=77	=77	=77	=77
2d	1A	1e	2b-]
2c	.	.	1a
2d	2r	2f	.
2B-	[2d	4e	2g
.	.	4d	.
=78	=78	=78	=78
1A	2d]	1e	1a
.	2c	.	.
1D	2f	[1a	2r
.	2d	.	[2dd
=79	=79	=79	=79
1A	1e	1a]	2dd]
.	.	.	2cc
1r	2d	2r	2ff
.	2G	[2g	2dd
=80	=80	=80	=80
1r	2c	2g]	2ee-
.	2d	2f	1dd
2r	2.G	[1b-	.
[2G	.	.	4b-
.	4A	.	4cc
=81	=81	=81	=81
2G]	2B-	2b-]	4dd
.	.	.	4ee
2F	2c	4a	1ff
.	.	4g	.
2B-	2d	2f	.
2G	2e	2b-	4ee
.	.	.	4dd
=82	=82	=82	=82
0A	2f	0a	2cc
.	4e	.	1dd
.	4d	.	.
.	1e	.	.
.	.	.	2cc#
=83	=83	=83	=83
2D	2d	2f#	2dd
1G	1d	1g	1b-
2D	2d	2f#	2a
=84	=84	=84	=84
1D	1d	1f#	2a
.	.	.	1a
1d	1f	1r	.
.	.	.	2b-
=85	=85	=85	=85
2e-	2g	1r	2cc
2d	1a	.	1dd
1e-	.	2r	.
.	[2g	2g	2cc
=86	=86	=86	=86
1d	2g]	2b-	1dd
.	2f#	2a	.
2r	1g	1b-	2r
2G	.	.	2dd
=87	=87	=87	=87
2c	1r	1g	2ee-
2B	.	.	2dd
2c	1g	2r	2ee-
2c	.	2g	2ee-
=88	=88	=88	=88
1d	2g	2b-	1dd
.	2f#	2a	.
2r	2g	2b-	2r
2G	2g	2b-	2dd
=89	=89	=89	=89
1d	2f	2a	1dd
.	2f	2a	.
1A	2e	1a	2cc
.	2c	.	2ee
=90	=90	=90	=90
1d	4d	2a	1.ff
.	4e	.	.
.	4f	2dd	.
.	4g	.	.
2f	2a	2.cc	.
2c	[2g	.	2ee
.	.	4cc	.
=91	=91	=91	=91
1d	2g]	0a	1dd
.	2f#	.	.
[1d	[1g	.	2r
.	.	.	[2dd
=92	=92	=92	=92
1d]	1g]	1r	2dd]
.	.	.	2a
1A	1r	1a	2.cc
.	.	.	4dd
=93	=93	=93	=93
1c	1g	1e	4ee
.	.	.	4ff
.	.	.	4gg
.	.	.	4g
1B-	1d	2g	4b-
.	.	.	4cc
.	.	4f	[2dd
.	.	4g	.
=94	=94	=94	=94
0A	1f	0a	2dd]
.	.	.	4cc#
.	.	.	4b
.	1e	.	1cc#
=95	=95	=95	=95
0d	2r	0f	1dd
.	2d	.	.
.	2.B-	.	2r
.	.	.	2dd
.	4A	.	.
=96	=96	=96	=96
2r	2G	1r	2b-
2d	2F#	.	2a
2.B-	2G	2r	2.g
.	2G	2dd	.
4A	.	.	4f
=97	=97	=97	=97
2G	0d	2b-	2g
2F#	.	2a	2a
2G	.	2g	2b-
2G	.	2g	2b-
=98	=98	=98	=98
1d	2r	2f#	1a
.	1f	1a	.
1d	.	.	1r
.	[2d	2f	.
=99	=99	=99	=99
2B-	2d]	2g	0r
2c	2e	2.a	.
2.d	[1f	.	.
.	.	4g	.
.	.	4f	.
4c	.	4e	.
=100	=100	=100	=100
4B-	2f]	2d	1r
4A	.	.	.
2G	2B-	2g	.
2F	2c	2a	2r
2D	2d	[2b-	2dd
=101	=101	=101	=101
1E-	1G	4b-]	2.b-
.	.	4a	.
.	.	1g	.
.	.	.	4cc
1D	1A	.	2.dd
.	.	2f	.
.	.	.	4cc
=102	=102	=102	=102
0r	2B-	2d	4b-
.	.	.	4a
.	2c	2.e	2g
.	2d	.	2f
.	.	4d	.
.	2B-	[2d	2d
=103	=103	=103	=103
2r	2A	2d]	1e
2A	1a	2c#	.
2F	.	1d	2d
2G	4g	.	[2dd
.	4f	.	.
=104	=104	=104	=104
1A	1e	2r	2dd]
.	.	1a	2cc#
2r	1d	.	1dd
2d	.	2f	.
=105	=105	=105	=105
2B-	0r	2g	1r
2c	.	2.a	.
2.d	.	.	2r
.	.	4g	.
.	.	4f	[2dd
4c	.	4e	.
=106	=106	=106	=106
4B-	2r	1d	2dd]
4A	.	.	.
2G	2g	.	2b-
2c	2e	1r	2cc
4B-	2f	.	[2dd
4A	.	.	.
=107	=107	=107	=107
1G	2.g	1d	4dd]
.	.	.	4cc
.	.	.	4b-
.	4f	.	4a
2c	4e	2e	2g
.	4d	.	.
2F	2c	2f	2a
=108	=108	=108	=108
2G	2B-	2d	2b-
2E-	2G	1g	2cc
1D	1A	.	[1dd
.	.	2f#	.
=109	=109	=109	=109
0G	2.B	[0g	1dd]
.	4c	.	.
.	1d	.	1b
=110	=110	=110	=110
0C	0e-	1g_	0cc
.	.	1g_	.
=111	=111	=111	=111
0G	0d	0g]	0b
==	==	==	==
*-	*-	*-	*-
!!!CDT: 1525/^1526/-1594/2/2
!!!OCY: Italia
!!!AGN: Mass (Parody)
!!!AST: renaissance, vocal
!!!ASW: Motet 1563 (Palestrina)
!!!PWK: Masses, Book 12
!!!RNB: Cadence finals: D
!!!YOR: Le Opere Complete, v. 29, p. 30
!!!YOO: Rome, Italy: Fratelli Scalera
!!!END: 1992//
!!!EED: John Miller
!!!YEC: Copyright 2000, John Miller
!!!YEN: United States of America
!!!YEM: Rights to all derivative electronic formats reserved.
!!!YEM: Refer to licensing agreement for further details.
!!!YEM: This file must be accompanied by the licensing agreement.
!!!YEM: A copy of the licensing agreement may be found at http://www.music-cog.ohio-state.edu/HumdrumDatabases/Palestrina/license.txt
!!!EMD: converted to Humdrum by Bret Aarden
